X: 38909
T: Suomalainen Polkka
R: polka
M: 2/4
K: Bminor
|:"Em"BB/c/ B/A/G/F/|EE/G/ EE/G/|"B,7"FB B/^d/f|"Em"g/f/e/^d/ e/f/g/a/|
"Em"BB/c/ B/A/G/F/|EE/G/ EE/G/|"B,7"FB B/^d/f|"Em"g/f/e e2:|
|:"Em"gB "B,7"fB|"Em"e/f/g/f/ "B,7"Bf|"Em"gB "B,7"fB|"Em"e/f/g/f/ "B,7"Bf|
"Em"gB "B,7"fB|"Em"EG/B/ e2|"B,7"FB B/^d/f|"Em"g/f/e e2:|

